_includes/icons/ios-bulleted-list.svg

<svg fill="#666" height="50" viewBox="0 0 50 50" width="50" xmlns="http://www.w3.org/2000/svg"><path d="m4 4c-2.199219 0-4 1.800781-4 4s1.800781 4 4 4 4-1.800781 4-4-1.800781-4-4-4zm0 2c1.117188 0 2 .882813 2 2 0 1.117188-.882812 2-2 2-1.117187 0-2-.882812-2-2 0-1.117187.882813-2 2-2zm8 1v2h38v-2zm-8 14c-2.199219 0-4 1.800781-4 4s1.800781 4 4 4 4-1.800781 4-4-1.800781-4-4-4zm0 2c1.117188 0 2 .882813 2 2 0 1.117188-.882812 2-2 2-1.117187 0-2-.882812-2-2 0-1.117187.882813-2 2-2zm8 1v2h38v-2zm-8 14c-2.199219 0-4 1.800781-4 4s1.800781 4 4 4 4-1.800781 4-4-1.800781-4-4-4zm0 2c1.117188 0 2 .882813 2 2 0 1.117188-.882812 2-2 2-1.117187 0-2-.882812-2-2 0-1.117187.882813-2 2-2zm8 1v2h38v-2z"/></svg>

<svg xmlns="http://www.w3.org/2000/svg" viewBox="0 0 50 50" width="50" height="50" fill="#666"><path d="M 4 4 C 1.800781 4 0 5.800781 0 8 C 0 10.199219 1.800781 12 4 12 C 6.199219 12 8 10.199219 8 8 C 8 5.800781 6.199219 4 4 4 Z M 4 6 C 5.117188 6 6 6.882813 6 8 C 6 9.117188 5.117188 10 4 10 C 2.882813 10 2 9.117188 2 8 C 2 6.882813 2.882813 6 4 6 Z M 12 7 L 12 9 L 50 9 L 50 7 Z M 4 21 C 1.800781 21 0 22.800781 0 25 C 0 27.199219 1.800781 29 4 29 C 6.199219 29 8 27.199219 8 25 C 8 22.800781 6.199219 21 4 21 Z M 4 23 C 5.117188 23 6 23.882813 6 25 C 6 26.117188 5.117188 27 4 27 C 2.882813 27 2 26.117188 2 25 C 2 23.882813 2.882813 23 4 23 Z M 12 24 L 12 26 L 50 26 L 50 24 Z M 4 38 C 1.800781 38 0 39.800781 0 42 C 0 44.199219 1.800781 46 4 46 C 6.199219 46 8 44.199219 8 42 C 8 39.800781 6.199219 38 4 38 Z M 4 40 C 5.117188 40 6 40.882813 6 42 C 6 43.117188 5.117188 44 4 44 C 2.882813 44 2 43.117188 2 42 C 2 40.882813 2.882813 40 4 40 Z M 12 41 L 12 43 L 50 43 L 50 41 Z"/></svg>
